assets/symbols/mulberry/flag_sierra_leone.svg

<svg height="850.394" viewBox="0 0 850.394 850.394" width="850.394" xmlns="http://www.w3.org/2000/svg"><path d="m122 114.77c5.8 2.59 12.62 4.08 19.92 4.08 7.62 0 14.73-1.63 20.69-4.43v667.48l-39.49 2.979z" fill="#c8c8c8"/><path d="m748.18 140.34v116.66h-582.04l-1.07-116.66z" fill="#58b947"/><path d="m748.18 257v135h-580.18l-.62.01-1.11-121.01h579.73v-14z" fill="#fff"/><path d="m748.18 392v128.17h-579.62l-1.18-128.16.62-.01h576z" fill="#0071bc"/><path d="m746 257v14h-579.73l-.13-14z" fill="#231f20"/><path d="m141.92 63.09c21.13 0 38.26 12.48 38.26 27.88 0 9.84-7 18.49-17.57 23.45-5.96 2.8-13.07 4.43-20.69 4.43-7.3 0-14.12-1.49-19.92-4.08-10.99-4.89-18.33-13.72-18.33-23.8 0-15.4 17.13-27.88 38.25-27.88z" fill="#c8c8c8"/><path d="m167.96 781.5.08 1-5.43.41v-1.01zm-1.82-524.5.13 14h-2.27v-14zm-3.53 524.9v1.01l-39.45 2.97-.04-.5v-.5zm-39.49 2.98v.5l-.04-.5z" fill="#231f20"/><g fill="none"><g stroke="#231f20"><path d="m165.07 140.34h583.11v379.83h-579.62" stroke-width="14"/><path d="m122 114.77c-10.99-4.89-18.33-13.72-18.33-23.8 0-15.4 17.13-27.88 38.25-27.88 21.13 0 38.26 12.48 38.26 27.88 0 9.84-7 18.49-17.57 23.45-5.96 2.8-13.07 4.43-20.69 4.43-7.3 0-14.12-1.49-19.92-4.08z" stroke-width="21"/><path d="m122 114v.77l1.12 670.11m39.49-1.97v2.47m0-672.78v669.3" stroke-width="21"/><path d="m168 392h576" stroke-width="14"/></g><path d="m0 0h850.394v850.394h-850.394z"/></g></svg>

<svg xmlns="http://www.w3.org/2000/svg" width="850.394" height="850.394" viewBox="0 0 850.394 850.394" overflow="visible"><path d="M122 114.77c5.8 2.59 12.62 4.08 19.92 4.08 7.62 0 14.73-1.63 20.69-4.43V781.9l-39.49 2.979L122 114.77z" fill="#c8c8c8"/><path fill="#58b947" d="M748.18 140.34V257H166.14l-1.07-116.66z"/><path fill="#fff" d="M748.18 257v135H168l-.62.01L166.27 271H746v-14z"/><path fill="#0071bc" d="M748.18 392v128.17H168.56l-1.18-128.16.62-.01h576z"/><path fill="#231f20" d="M746 257v14H166.27l-.13-14z"/><path d="M141.92 63.09c21.13 0 38.26 12.48 38.26 27.88 0 9.84-7 18.49-17.57 23.45-5.96 2.8-13.07 4.43-20.69 4.43-7.3 0-14.12-1.49-19.92-4.08-10.99-4.89-18.33-13.72-18.33-23.8 0-15.4 17.13-27.88 38.25-27.88z" fill="#c8c8c8"/><path fill="#231f20" d="M167.96 781.5l.08 1-5.43.41v-1.01zM166.14 257l.13 14H164v-14zM162.61 781.9v1.01l-39.45 2.97-.04-.5v-.5zM123.12 784.88v.5l-.04-.5z"/><g fill="none" stroke="#231f20"><path stroke-width="14" d="M165.07 140.34h583.11v379.83H168.56"/><path d="M122 114.77c-10.99-4.89-18.33-13.72-18.33-23.8 0-15.4 17.13-27.88 38.25-27.88 21.13 0 38.26 12.48 38.26 27.88 0 9.84-7 18.49-17.57 23.45-5.96 2.8-13.07 4.43-20.69 4.43-7.3 0-14.12-1.49-19.92-4.08z" stroke-width="21"/><path stroke-width="21" d="M122 114v.77l1.12 670.11M162.61 782.91v2.47M162.61 112.6V781.9"/><path stroke-width="14" d="M168 392h576"/></g><path fill="none" d="M0 0h850.394v850.394H0z"/></svg>
